Newaita-dark/apps/16/vmware-netcfg.svg

<?xml version="1.0" encoding="UTF-8"?>
<svg xmlns="http://www.w3.org/2000/svg" xmlns:xlink="http://www.w3.org/1999/xlink" width="16pt" height="16pt" viewBox="0 0 16 16" version="1.1">
<defs>
<linearGradient id="linear0" gradientUnits="userSpaceOnUse" x1="328.96524" y1="233.5" x2="328.96524" y2="254.666672" gradientTransform="matrix(0.0789548,0,0,0.031253,-21.67351,6.719392)">
<stop offset="0" style="stop-color:rgb(0%,0%,0%);stop-opacity:0.27451;"/>
<stop offset="1" style="stop-color:rgb(0%,0%,0%);stop-opacity:0;"/>
</linearGradient>
<radialGradient id="radial0" gradientUnits="userSpaceOnUse" cx="450.908936" cy="189.579361" fx="450.908936" fy="189.579361" r="21.166656" gradientTransform="matrix(0.0000000870852,-0.0390662,-0.0703192,-0.0000000507693,22.426958,31.797665)">
<stop offset="0" style="stop-color:rgb(0%,0%,0%);stop-opacity:0.313725;"/>
<stop offset="0.222222" style="stop-color:rgb(0%,0%,0%);stop-opacity:0.27451;"/>
<stop offset="1" style="stop-color:rgb(0%,0%,0%);stop-opacity:0;"/>
</radialGradient>
<radialGradient id="radial1" gradientUnits="userSpaceOnUse" cx="450.908936" cy="189.579361" fx="450.908936" fy="189.579361" r="21.166656" gradientTransform="matrix(-0.0000000870852,0.0390662,0.0703192,0.0000000507693,-10.188805,-3.76374)">
<stop offset="0" style="stop-color:rgb(0%,0%,0%);stop-opacity:0.313725;"/>
<stop offset="0.222222" style="stop-color:rgb(0%,0%,0%);stop-opacity:0.27451;"/>
<stop offset="1" style="stop-color:rgb(0%,0%,0%);stop-opacity:0;"/>
</radialGradient>
<radialGradient id="radial2" gradientUnits="userSpaceOnUse" cx="450.908936" cy="189.579361" fx="450.908936" fy="189.579361" r="21.166656" gradientTransform="matrix(-0.0000000870852,-0.0390662,0.0703192,-0.0000000507693,-10.188805,31.797665)">
<stop offset="0" style="stop-color:rgb(0%,0%,0%);stop-opacity:0.313725;"/>
<stop offset="0.222222" style="stop-color:rgb(0%,0%,0%);stop-opacity:0.27451;"/>
<stop offset="1" style="stop-color:rgb(0%,0%,0%);stop-opacity:0;"/>
</radialGradient>
<radialGradient id="radial3" gradientUnits="userSpaceOnUse" cx="450.908936" cy="189.579361" fx="450.908936" fy="189.579361" r="21.166656" gradientTransform="matrix(0.0000000870852,0.0390662,-0.0703192,0.0000000507693,22.426957,-3.763741)">
<stop offset="0" style="stop-color:rgb(0%,0%,0%);stop-opacity:0.313725;"/>
<stop offset="0.222222" style="stop-color:rgb(0%,0%,0%);stop-opacity:0.27451;"/>
<stop offset="1" style="stop-color:rgb(0%,0%,0%);stop-opacity:0;"/>
</radialGradient>
<linearGradient id="linear1" gradientUnits="userSpaceOnUse" x1="760" y1="1695.118164" x2="760" y2="615.118103" gradientTransform="matrix(0.00826902,0,0,0.00826902,0,0)">
<stop offset="0" style="stop-color:rgb(25.882353%,64.705882%,96.078431%);stop-opacity:1;"/>
<stop offset="1" style="stop-color:rgb(39.215686%,70.980392%,96.470588%);stop-opacity:1;"/>
</linearGradient>
<linearGradient id="linear2" gradientUnits="userSpaceOnUse" x1="1200" y1="1255.118164" x2="1200" y2="175.118118" gradientTransform="matrix(0.00826902,0,0,0.00826902,0,0)">
<stop offset="0" style="stop-color:rgb(100%,65.490196%,14.901961%);stop-opacity:1;"/>
<stop offset="1" style="stop-color:rgb(100%,71.764706%,30.196078%);stop-opacity:1;"/>
</linearGradient>
</defs>
<g id="surface1">
<path style=" stroke:none;fill-rule:nonzero;fill:url(#linear0);" d="M 2.976562 14.015625 L 9.261719 14.015625 L 9.261719 14.679688 L 2.976562 14.679688 Z M 2.976562 14.015625 "/>
<path style=" stroke:none;fill-rule:nonzero;fill:url(#radial0);" d="M 9.261719 14.015625 L 10.585938 14.015625 L 10.585938 13.355469 L 9.261719 13.355469 Z M 9.261719 14.015625 "/>
<path style=" stroke:none;fill-rule:nonzero;fill:url(#radial1);" d="M 2.976562 14.015625 L 1.652344 14.015625 L 1.652344 14.679688 L 2.976562 14.679688 Z M 2.976562 14.015625 "/>
<path style=" stroke:none;fill-rule:nonzero;fill:url(#radial2);" d="M 2.976562 14.015625 L 1.652344 14.015625 L 1.652344 13.355469 L 2.976562 13.355469 Z M 2.976562 14.015625 "/>
<path style=" stroke:none;fill-rule:nonzero;fill:url(#radial3);" d="M 9.261719 14.015625 L 10.585938 14.015625 L 10.585938 14.679688 L 9.261719 14.679688 Z M 9.261719 14.015625 "/>
<path style=" stroke:none;fill-rule:nonzero;fill:url(#linear1);" d="M 2.644531 5.085938 C 2.097656 5.085938 1.652344 5.527344 1.652344 6.078125 L 1.652344 13.023438 C 1.652344 13.574219 2.097656 14.015625 2.644531 14.015625 L 9.59375 14.015625 C 10.140625 14.015625 10.585938 13.574219 10.585938 13.023438 L 10.585938 6.488281 L 8.601562 8.472656 L 8.601562 11.371094 C 8.601562 11.738281 8.304688 12.03125 7.9375 12.03125 L 4.300781 12.03125 C 3.933594 12.03125 3.636719 11.738281 3.636719 11.371094 L 3.636719 7.734375 C 3.636719 7.367188 3.933594 7.070312 4.300781 7.070312 L 7.195312 7.070312 L 9.179688 5.085938 Z M 2.644531 5.085938 "/>
<path style=" stroke:none;fill-rule:nonzero;fill:url(#linear2);" d="M 6.285156 1.449219 C 5.734375 1.449219 5.292969 1.890625 5.292969 2.441406 L 5.292969 5.085938 L 7.277344 5.085938 L 7.277344 4.09375 C 7.277344 3.726562 7.570312 3.433594 7.9375 3.433594 L 11.578125 3.433594 C 11.941406 3.433594 12.238281 3.726562 12.238281 4.09375 L 12.238281 7.734375 C 12.238281 8.097656 11.941406 8.394531 11.578125 8.394531 L 8.675781 8.394531 L 6.691406 10.378906 L 13.230469 10.378906 C 13.78125 10.378906 14.222656 9.9375 14.222656 9.386719 L 14.222656 2.441406 C 14.222656 1.890625 13.78125 1.449219 13.230469 1.449219 Z M 5.292969 7.070312 L 5.292969 8.972656 L 7.195312 7.070312 Z M 5.292969 7.070312 "/>
<path style=" stroke:none;fill-rule:nonzero;fill:rgb(100%,100%,100%);fill-opacity:0.470588;" d="M 6.285156 1.449219 C 5.734375 1.449219 5.292969 1.890625 5.292969 2.441406 L 5.292969 2.605469 C 5.292969 2.054688 5.734375 1.613281 6.285156 1.613281 L 13.230469 1.613281 C 13.78125 1.613281 14.222656 2.054688 14.222656 2.605469 L 14.222656 2.441406 C 14.222656 1.890625 13.78125 1.449219 13.230469 1.449219 Z M 12.238281 7.734375 C 12.238281 8.097656 11.941406 8.394531 11.578125 8.394531 L 8.675781 8.394531 L 6.691406 10.378906 L 6.859375 10.378906 L 8.675781 8.558594 L 11.578125 8.558594 C 11.941406 8.558594 12.238281 8.265625 12.238281 7.898438 Z M 12.238281 7.734375 "/>
<path style=" stroke:none;fill-rule:nonzero;fill:rgb(12.941177%,12.941177%,12.941177%);fill-opacity:1;" d="M 6.285156 1.402344 C 5.710938 1.402344 5.246094 1.867188 5.246094 2.441406 L 5.246094 5.085938 C 5.246094 5.113281 5.265625 5.132812 5.292969 5.132812 L 7.277344 5.132812 C 7.300781 5.132812 7.324219 5.113281 7.324219 5.085938 L 7.324219 4.09375 C 7.324219 3.753906 7.597656 3.480469 7.9375 3.480469 L 11.578125 3.480469 C 11.917969 3.480469 12.191406 3.753906 12.191406 4.09375 L 12.191406 7.734375 C 12.191406 8.074219 11.917969 8.347656 11.578125 8.347656 L 8.675781 8.347656 C 8.664062 8.347656 8.652344 8.351562 8.644531 8.359375 L 6.660156 10.34375 C 6.648438 10.359375 6.640625 10.378906 6.648438 10.398438 C 6.65625 10.414062 6.675781 10.425781 6.691406 10.425781 L 13.230469 10.425781 C 13.804688 10.425781 14.269531 9.960938 14.269531 9.386719 L 14.269531 2.441406 C 14.269531 1.867188 13.804688 1.402344 13.230469 1.402344 Z M 6.285156 1.496094 L 13.230469 1.496094 C 13.753906 1.496094 14.175781 1.914062 14.175781 2.441406 L 14.175781 9.386719 C 14.175781 9.910156 13.753906 10.332031 13.230469 10.332031 L 6.804688 10.332031 L 8.695312 8.441406 L 11.578125 8.441406 C 11.96875 8.441406 12.285156 8.125 12.285156 7.734375 L 12.285156 4.09375 C 12.285156 3.703125 11.96875 3.386719 11.578125 3.386719 L 7.9375 3.386719 C 7.546875 3.386719 7.230469 3.703125 7.230469 4.09375 L 7.230469 5.039062 L 5.339844 5.039062 L 5.339844 2.441406 C 5.339844 1.914062 5.761719 1.496094 6.285156 1.496094 Z M 5.292969 7.023438 C 5.265625 7.023438 5.246094 7.046875 5.246094 7.070312 L 5.246094 8.972656 C 5.246094 8.992188 5.257812 9.007812 5.273438 9.015625 C 5.292969 9.023438 5.3125 9.019531 5.324219 9.007812 L 7.226562 7.105469 C 7.242188 7.089844 7.246094 7.070312 7.238281 7.054688 C 7.230469 7.035156 7.214844 7.023438 7.195312 7.023438 Z M 5.339844 7.117188 L 7.082031 7.117188 L 5.339844 8.859375 Z M 5.339844 7.117188 "/>
<path style=" stroke:none;fill-rule:nonzero;fill:rgb(0%,0%,0%);fill-opacity:0.235294;" d="M 7.9375 3.265625 C 7.570312 3.265625 7.277344 3.5625 7.277344 3.929688 L 7.277344 4.09375 C 7.277344 3.726562 7.570312 3.433594 7.9375 3.433594 L 11.578125 3.433594 C 11.941406 3.433594 12.238281 3.726562 12.238281 4.09375 L 12.238281 3.929688 C 12.238281 3.5625 11.941406 3.265625 11.578125 3.265625 Z M 7.027344 7.070312 L 5.292969 8.808594 L 5.292969 8.972656 L 7.195312 7.070312 Z M 14.222656 9.222656 C 14.222656 9.769531 13.78125 10.214844 13.230469 10.214844 L 6.859375 10.214844 L 6.691406 10.378906 L 13.230469 10.378906 C 13.78125 10.378906 14.222656 9.9375 14.222656 9.386719 Z M 14.222656 9.222656 "/>
<path style=" stroke:none;fill-rule:nonzero;fill:rgb(100%,100%,100%);fill-opacity:0.392157;" d="M 2.644531 5.085938 C 2.097656 5.085938 1.652344 5.527344 1.652344 6.078125 L 1.652344 6.242188 C 1.652344 5.695312 2.097656 5.25 2.644531 5.25 L 9.011719 5.25 L 9.179688 5.085938 Z M 10.585938 6.488281 L 8.765625 8.351562 L 8.890625 8.351562 L 10.585938 6.652344 Z M 3.636719 11.371094 L 3.636719 11.535156 C 3.636719 11.902344 3.933594 12.199219 4.300781 12.199219 L 7.9375 12.199219 C 8.304688 12.199219 8.601562 11.902344 8.601562 11.535156 L 8.601562 11.371094 C 8.601562 11.738281 8.304688 12.03125 7.9375 12.03125 L 4.300781 12.03125 C 3.933594 12.03125 3.636719 11.738281 3.636719 11.371094 Z M 3.636719 11.371094 "/>
<path style=" stroke:none;fill-rule:nonzero;fill:rgb(0%,0%,0%);fill-opacity:0.235294;" d="M 9.015625 5.085938 L 7.195312 6.910156 L 4.300781 6.910156 C 3.933594 6.910156 3.636719 7.203125 3.636719 7.570312 L 3.636719 7.734375 C 3.636719 7.367188 3.933594 7.070312 4.300781 7.070312 L 7.195312 7.070312 L 9.179688 5.085938 Z M 1.652344 12.863281 L 1.652344 13.023438 C 1.652344 13.574219 2.097656 14.015625 2.644531 14.015625 L 9.59375 14.015625 C 10.140625 14.015625 10.585938 13.574219 10.585938 13.023438 L 10.585938 12.863281 C 10.585938 13.410156 10.140625 13.855469 9.59375 13.855469 L 2.644531 13.855469 C 2.097656 13.855469 1.652344 13.410156 1.652344 12.863281 Z M 1.652344 12.863281 "/>
<path style=" stroke:none;fill-rule:nonzero;fill:rgb(12.941177%,12.941177%,12.941177%);fill-opacity:1;" d="M 2.644531 5.039062 C 2.070312 5.039062 1.605469 5.503906 1.605469 6.078125 L 1.605469 13.023438 C 1.605469 13.597656 2.070312 14.0625 2.644531 14.0625 L 9.59375 14.0625 C 10.167969 14.0625 10.632812 13.597656 10.632812 13.023438 L 10.632812 10.378906 L 10.539062 10.378906 L 10.539062 13.023438 C 10.539062 13.550781 10.117188 13.96875 9.59375 13.96875 L 2.644531 13.96875 C 2.121094 13.96875 1.699219 13.550781 1.699219 13.023438 L 1.699219 6.078125 C 1.699219 5.554688 2.121094 5.132812 2.644531 5.132812 L 9.066406 5.132812 L 7.175781 7.023438 L 4.300781 7.023438 C 3.910156 7.023438 3.589844 7.339844 3.589844 7.734375 L 3.589844 11.371094 C 3.589844 11.761719 3.910156 12.078125 4.300781 12.078125 L 7.9375 12.078125 C 8.328125 12.078125 8.648438 11.761719 8.648438 11.371094 L 8.648438 10.378906 L 8.554688 10.378906 L 8.554688 11.371094 C 8.554688 11.710938 8.28125 11.984375 7.9375 11.984375 L 4.300781 11.984375 C 3.957031 11.984375 3.683594 11.710938 3.683594 11.371094 L 3.683594 7.734375 C 3.683594 7.390625 3.957031 7.117188 4.300781 7.117188 L 7.195312 7.117188 C 7.207031 7.117188 7.21875 7.113281 7.226562 7.105469 L 9.210938 5.121094 C 9.226562 5.105469 9.230469 5.085938 9.222656 5.070312 C 9.214844 5.050781 9.199219 5.039062 9.179688 5.039062 Z M 10.582031 6.441406 C 10.570312 6.441406 10.558594 6.445312 10.550781 6.453125 L 8.609375 8.394531 L 8.742188 8.394531 L 10.539062 6.601562 L 10.539062 8.394531 L 10.632812 8.394531 L 10.632812 6.488281 C 10.632812 6.476562 10.625 6.460938 10.617188 6.453125 C 10.609375 6.445312 10.59375 6.441406 10.582031 6.441406 Z M 10.582031 6.441406 "/>
</g>
</svg>

<svg xmlns="http://www.w3.org/2000/svg" width="16pt" height="16pt" viewBox="0 0 16 16"><defs><linearGradient id="a" gradientUnits="userSpaceOnUse" x1="328.965" y1="233.5" x2="328.965" y2="254.667" gradientTransform="matrix(.07895 0 0 .03125 -21.674 6.72)"><stop offset="0" stop-opacity=".275"/><stop offset="1" stop-opacity="0"/></linearGradient><radialGradient id="b" gradientUnits="userSpaceOnUse" cx="450.909" cy="189.579" fx="450.909" fy="189.579" r="21.167" gradientTransform="matrix(0 -.03907 -.07032 0 22.427 31.798)"><stop offset="0" stop-opacity=".314"/><stop offset=".222" stop-opacity=".275"/><stop offset="1" stop-opacity="0"/></radialGradient><radialGradient id="c" gradientUnits="userSpaceOnUse" cx="450.909" cy="189.579" fx="450.909" fy="189.579" r="21.167" gradientTransform="matrix(0 .03907 .07032 0 -10.189 -3.764)"><stop offset="0" stop-opacity=".314"/><stop offset=".222" stop-opacity=".275"/><stop offset="1" stop-opacity="0"/></radialGradient><radialGradient id="d" gradientUnits="userSpaceOnUse" cx="450.909" cy="189.579" fx="450.909" fy="189.579" r="21.167" gradientTransform="matrix(0 -.03907 .07032 0 -10.189 31.798)"><stop offset="0" stop-opacity=".314"/><stop offset=".222" stop-opacity=".275"/><stop offset="1" stop-opacity="0"/></radialGradient><radialGradient id="e" gradientUnits="userSpaceOnUse" cx="450.909" cy="189.579" fx="450.909" fy="189.579" r="21.167" gradientTransform="matrix(0 .03907 -.07032 0 22.427 -3.764)"><stop offset="0" stop-opacity=".314"/><stop offset=".222" stop-opacity=".275"/><stop offset="1" stop-opacity="0"/></radialGradient><linearGradient id="f" gradientUnits="userSpaceOnUse" x1="760" y1="1695.118" x2="760" y2="615.118" gradientTransform="rotate(.882) scale(.00827)"><stop offset="0" stop-color="#42a5f5"/><stop offset="1" stop-color="#64b5f6"/></linearGradient><linearGradient id="g" gradientUnits="userSpaceOnUse" x1="1200" y1="1255.118" x2="1200" y2="175.118" gradientTransform="rotate(.882) scale(.00827)"><stop offset="0" stop-color="#ffa726"/><stop offset="1" stop-color="#ffb74d"/></linearGradient></defs><path d="M2.977 14.016h6.285v.664H2.977zm0 0" fill="url(#a)"/><path d="M9.262 14.016h1.324v-.66H9.262zm0 0" fill="url(#b)"/><path d="M2.977 14.016H1.652v.664h1.325zm0 0" fill="url(#c)"/><path d="M2.977 14.016H1.652v-.66h1.325zm0 0" fill="url(#d)"/><path d="M9.262 14.016h1.324v.664H9.262zm0 0" fill="url(#e)"/><path d="M2.645 5.086a.991.991 0 0 0-.993.992v6.945c0 .551.446.993.993.993h6.949a.991.991 0 0 0 .992-.993V6.488L8.602 8.473v2.898a.66.66 0 0 1-.665.66H4.301a.66.66 0 0 1-.664-.66V7.734c0-.367.297-.664.664-.664h2.894L9.18 5.086zm0 0" fill="url(#f)"/><path d="M6.285 1.45a.989.989 0 0 0-.992.991v2.645h1.984v-.992c0-.367.293-.66.66-.66h3.641a.66.66 0 0 1 .66.66v3.64c0 .364-.297.66-.66.66H8.676L6.69 10.38h6.54c.55 0 .992-.441.992-.992V2.44a.989.989 0 0 0-.993-.992zm-.992 5.62v1.903L7.195 7.07zm0 0" fill="url(#g)"/><path d="M6.285 1.45a.989.989 0 0 0-.992.991v.164c0-.55.441-.992.992-.992h6.945c.551 0 .993.442.993.992v-.164a.989.989 0 0 0-.993-.992zm5.953 6.284c0 .364-.297.66-.66.66H8.676L6.69 10.38h.168l1.817-1.82h2.902a.66.66 0 0 0 .66-.66zm0 0" fill="#fff" fill-opacity=".471"/><path d="M6.285 1.402c-.574 0-1.039.465-1.039 1.04v2.644c0 .027.02.047.047.047h1.984c.024 0 .047-.02.047-.047v-.992c0-.34.274-.614.614-.614h3.64c.34 0 .613.274.613.614v3.64c0 .34-.273.614-.613.614H8.676a.044.044 0 0 0-.031.011L6.66 10.344c-.012.015-.02.035-.012.054a.053.053 0 0 0 .043.028h6.54c.574 0 1.039-.465 1.039-1.04V2.442c0-.574-.465-1.039-1.04-1.039zm0 .094h6.945c.524 0 .946.418.946.945v6.946a.944.944 0 0 1-.946.945H6.805l1.89-1.89h2.883c.39 0 .707-.317.707-.708v-3.64a.707.707 0 0 0-.707-.707h-3.64a.707.707 0 0 0-.708.707v.945H5.34V2.441c0-.527.422-.945.945-.945zm-.992 5.527a.047.047 0 0 0-.047.047v1.903c0 .02.012.035.027.043.02.007.04.004.051-.008l1.903-1.903c.015-.015.02-.035.011-.05-.008-.02-.023-.032-.043-.032zm.047.094h1.742L5.34 8.86zm0 0" fill="#212121"/><path d="M7.938 3.266a.66.66 0 0 0-.66.664v.164c0-.367.292-.66.66-.66h3.64a.66.66 0 0 1 .66.66V3.93a.663.663 0 0 0-.66-.664zm-.91 3.804L5.292 8.81v.164L7.195 7.07zm7.195 2.153a.991.991 0 0 1-.993.992H6.86l-.169.164h6.54c.55 0 .992-.441.992-.992zm0 0" fill-opacity=".235"/><path d="M2.645 5.086a.991.991 0 0 0-.993.992v.164c0-.547.446-.992.993-.992h6.367l.168-.164zm7.94 1.402l-1.82 1.864h.126l1.695-1.7zm-6.948 4.883v.164c0 .367.297.664.664.664h3.636a.664.664 0 0 0 .665-.664v-.164a.66.66 0 0 1-.665.66H4.301a.66.66 0 0 1-.664-.66zm0 0" fill="#fff" fill-opacity=".392"/><path d="M9.016 5.086L7.196 6.91H4.3a.66.66 0 0 0-.664.66v.164c0-.367.297-.664.664-.664h2.894L9.18 5.086zm-7.364 7.777v.16c0 .551.446.993.993.993h6.949a.991.991 0 0 0 .992-.993v-.16a.994.994 0 0 1-.992.992h-6.95a.994.994 0 0 1-.992-.992zm0 0" fill-opacity=".235"/><path d="M2.645 5.04c-.575 0-1.04.464-1.04 1.038v6.945c0 .575.465 1.04 1.04 1.04h6.949c.574 0 1.039-.465 1.039-1.04V10.38h-.094v2.644a.941.941 0 0 1-.945.946h-6.95a.941.941 0 0 1-.945-.946V6.078c0-.523.422-.945.946-.945h6.421l-1.89 1.89H4.3c-.39 0-.711.317-.711.711v3.637c0 .39.32.707.71.707h3.638a.71.71 0 0 0 .71-.707v-.992h-.093v.992c0 .34-.274.613-.617.613H4.3a.613.613 0 0 1-.617-.613V7.734c0-.343.273-.617.617-.617h2.894a.044.044 0 0 0 .032-.012L9.21 5.121c.016-.016.02-.035.012-.05-.008-.02-.024-.032-.043-.032zm7.937 1.401a.044.044 0 0 0-.031.012L8.609 8.395h.133l1.797-1.793v1.793h.094V6.488a.058.058 0 0 0-.016-.035c-.008-.008-.023-.012-.035-.012zm0 0" fill="#212121"/></svg>
